X:303
T:Tam Lin
M: 4/4
L: 1/8
Z: posted by Andrew Kuntz, 8/00
K: Am
EA (3ABA GABG| F2AF cFAF|G2BG dGBG|FGAc BAGF|
EA (3ABA GABG|F2AF  cFAF|G2BG dGBG|1cBAG EAAG:|2cBAG EAA2||
aeed cAce|aeed cAce|gd (3ddd Bdde|gdde gabg|aeed cAce|aeed cAGA|FEFG
AGAB|1cedB cAce:|2cedB cAAG||
